X:1
T: Miss Mary L. Robertson
C:William Marshall
R:Reel
Q: 232
K:C
M:4/4
L:1/8
|:F|EG GA c2 ce|de fe dD DF|EG GA c2 ca|ge fd c2 cF|
EG GA c2 ce|de fe dD DF|EG GA c2 ca|ge fd c2 cf|
ef1/2g1/2 cg eg cg|fg a1/2g1/2f1/2e1/2 fd df|ef1/2g1/2 cg eg cg|fd ge c2 cf|
ef1/2g1/2 cg eg cg|fg a1/2g1/2f1/2e1/2 fd df|ec dB dc BA|Gc GE C2 C:|
